X:1
T: Dick Sullivan's Favourite
C:
R:Jig
Q:180
K:G
M:6/8
L:1/16
|:Bcd2c2 B2d2B2|G2B2d2 g2d2B2|Bcd2c2 B2d2B2|A2F2A2 c2B2A2|
Bcd2c2 B2d2B2|G2B2d2 g2d2B2|c2a2c2 B2g2B2|A2F2A2 c2B2A2:|
|:d2g2f2 g2d2B2|g2a2g2 g2b2a2|g2a2g2 g2d2B2|FGA2B2 c2d2e2|
d2g2f2 g2d2B2|g2f2e2 d2c2B2|c2a2c2 B2g2B2|A2F2A2 c2B2A2:|
|:d2B2G2 GAB2c2|d2B2G2 g2f2e2|d2B2G2 G2A2G2|A2F2A2 c2d2e2|
d2B2G2 G2B2d2|g2f2e2 d2c2B2|c2a2c2 B2g2B2|A2F2A2 c2B2A2:|
